!!!COM: Mozart	
!!!OTL: 12 Variations on "Ah Vous dirais-je, Maman" for the Piano,	
!!!Variation: 12 b	
**kern	**kern
*M3/4	*M3/4
=-	=-
16GLL	(16aaLL
(16e	16gg
16d#	16ff#
16eJJ	16ggJJ
16d#LL	16ff#LL
16e	16gg
16d#	16ff#
16eJJ	16ggJJ
16d#LL	16ff#LL
16e	16gg
16d#	16ff#
16eJJ)	16ggJJ)
=	=
16GLL	(16ggLL
(16d	16ff
16c#	16ee
16dJJ	16ffJJ
16c#LL	16eeLL
16d	16ff
16c#	16ee
16dJJ	16ffJJ
16c#LL	16eeLL
16d	16ff
16c#	16ee
16dJJ)	16ffJJ)
=	=
16GLL	(16ffLL
(16c	16ee
16B	16dd#
16cJJ	16eeJJ
16BLL	16dd#LL
16c	16ee
16B	16dd#
16cJJ	16eeJJ
16BLL	16dd#LL
16c	16ee
16B	16dd#
16cJJ)	16eeJJ)
=	=
16GLL	(16eeLL
(16f	16dd
16e	16cc#
16fJJ	16ddJJ
16eLL	16cc#LL
16f	16dd
16e	16cc#
16fJJ	16ddJJ
16eLL	16cc#LL
16f	16dd
16e	16cc#
16fJJ)	16ddJJ)
=	=
16GLL	(16aaLL
(16e	16gg
16d#	16ff#
16eJJ	16ggJJ
16d#LL	16ff#LL
16e	16gg
16d#	16ff#
16eJJ	16ggJJ
16GLL	16eeeLL
16e	16gg
16G	16eee
16eJJ)	16ggJJ)
=	=
16GLL	(16ggLL
(16d	16ff
16c#	16ee
16dJJ	16ffJJ
16c#LL	16eeLL
16d	16ff
16c#	16ee
16dJJ	16ffJJ
16GLL	16dddLL
16d	16ff
16G	16ddd
16dJJ)	16ffJJ)
=	=
16GLL	(16ffLL
(16c	16ee
16B	16dd#
16cJJ	16eeJJ
16BLL	16dd#LL
16c	16ee
16B	16dd#
16cJJ	16eeJJ
16GLL	16cccLL
16c	16gg
16G	16ccc
16cJJ)	16ggJJ)
=	=
16GLL	(16eeLL
(16f	16dd
16e	16cc#
16fJJ	16ddJJ
16eLL	16cc#LL
16f	16dd
16e	16cc#
16fJJ	16ddJJ
16GLL	16ggLL
16f	16b
16G	16gg
16fJJ)	16bJJ)
=	=
*-	*-
